X:1
T:Title
%%score ( 1 2 3 ) { ( 4 7 ) | ( 5 6 ) }
L:1/8
Q:1/4=135
M:4/4
K:G
V:1 treble nm="Grand Piano, Staff"
V:2 treble 
V:3 treble 
V:4 bass nm="Grand Piano, Staff-1"
V:7 bass 
V:5 bass 
V:6 bass 
V:1
 D4 [B,G]2 [CG]2 | GA [DB]2 E3 F | [B,G]2 [CE]2 B,2 z E | z2 .E2 G4 | D2 C2 [B,G]2 [CG]2 | %5
w: By~Traditional * *|||||
 [B,G][CA] [DB]2 D2 z F | [B,G]2 E2 D3 E | z2 .E2 z4 | [DA]4 [GB]2 [FA]2 | Bc [Fd]2 [Ee]2 dB | %10
w: |||||
 [Fd]2 [EG]>A Bc [Dd]2 | ed [EB]2 [FA]4 | [Ge]4 [Gd]3 [DB] | [DG]2 [CF]2 [DG]3 [CE] | %14
w: ||||
 [B,D]2 B,2 D3 E | z2 .E2 z4 |] %16
w: ||
V:2
 x8 | B,2 z2 C2 D2 | z4 D4 | D2 C-[CF] B,2 C2 | x8 | z4 E4 | x8 | D2 A,-[A,F] [DG]4 | x8 | %9
 G2 z2 z2 F2 | z4 D2 z2 | G2 z2 z4 | x8 | x8 | x8 | D2 A,-[A,F] [DG]4 |] %16
V:3
 x8 | x8 | z4 z2 C2 | x8 | x8 | z4 z2 C2 | x8 | x8 | x8 | x8 | x8 | x8 | x8 | x8 | x8 | x8 |] %16
V:4
 D,4 G,2 G,2 | B,,2 B,,2 .E,4 | z2 E,2 .D,4 | F,2 E,F, G,4 | F,4 G,2 z2 | G,2 F,2 E,2 A,2 | %6
 G,2 A,2 B,2 A,2 | D2 C2 B,4 | D4 D2 C2 | D2 C2[K:bass] B,2 B,2 | B,2 G,2 G,2 A,2 | B,2 G,2 A,4 | %12
 C4 G,3 G, | G,2 A,2 G,3 G, | F,2 G,2 F,2 A,2 | D2 C2 B,4 |] %16
V:5
 z8 | z4 C,2 z F, | E,2 C,2 B,,2 z E, | D,2 C,2 z4 | D,4 E,2 z2 | z2 B,,2 C,2 A,,2 | %6
 E,2 C,2 D,2 C,2 | B,,2 A,,2 G,,4 | D,4 G,2 A,2 | G,2 A,2 G,2 z2 | B,,2 C,2 z2 F,2 | E,2 z2 D,4 | %12
 C,4 B,,3 A,, | B,,2 C,2 B,,3 C, | D,2 E,2 D,2 C,2 | B,,2 A,,2 G,,4 |] %16
V:6
 x8 | z4 z2 B,,2 | z4 z2 C,2 | x8 | x8 | x8 | x8 | x8 | x8 | x8 | x8 | x8 | x8 | x8 | x8 | x8 |] %16
V:7
 x8 | x8 | x8 | x8 | z4 z2 E,2- | E,2 z2 z4 | x8 | x8 | x8 | x4[K:bass] x4 | x8 | x8 | x8 | x8 | %14
 x8 | x8 |] %16

